**kern	**kern
*staff2	*staff1
*clefF4	*clefG2
*k[b-]	*k[b-]
*M3/4	*M3/4
=-	=-
8GL	8c'L
8CJ)	8c'J
=316	=316
(4F	(8c
.	4f
4A-	.
.	4a-
4c)	.
.	8f)
=317	=317
(4E	(8c
.	4g
4G	.
.	4b-
4c)	.
.	[8g)
=318	=318
(4F	(8g]
.	4a-
4D-	.
.	4f)
4BB-)	.
.	8g 8b-
=319	=319
2C	(4f 4a-
.	4e) 4g
4r	8cc'L
.	8cc'J
=320	=320
(4A- 4f	(8dd-
.	4cc
4G 4e	.
.	4b-
4F) 4f	.
.	[8a-)
=321	=321
2.B- 2.d-	(8a-L]
.	8gJ
.	8b-L
.	8dd-J
.	8b-L
.	8gJ)
=322	=322
*^	*
(4A-	2.C	8r
.	.	(4f
4G	.	.
.	.	8e
4E)	.	8gL
.	.	8ccJ)
=323	=323	=323
*	*	*^
4D-	4DD-	(4e 4g 4b-	4.r
*clefG2	*clefG2	*	*
8r	8r	8fL) 8a-	.
8f	8d-	8ffJ	8a-
8e-L	8cL	8ffL	8aL
8d-J	8B-J	8ffJ	8b-J
=324	=324	=324	=324
(4c	2.A	(8ff	2.cc
.	.	4gg-	.
4e-	.	.	.
.	.	4ff	.
4g-)	.	.	.
.	.	[8ee-)	.
=325	=325	=325	=325
2.f	(4B-	(8ee-]	4b-
.	.	4dd-	.
.	4c	.	2a-
.	.	4cc	.
.	4d-)	.	.
.	.	8b)	.
*	*	*v	*v
=326	=326	=326
4f 4a-	4c	8r
.	.	(8cc
4r	4r	8ffL
.	.	8a-J
*clefF4	*clefF4	*
(8GL	4C	8ccL
8B-J)	.	8eJ)
=327	=327	=327
4A-	4F	4f
4r	4FF	4r
*v	*v	*
*-	*-
